T: Dot The Dragon's Eyes
M: 4/4
L: 1/8
K: Emin
e2(3BBB B2AB | dB (3BBB B2AG | A2AB GBE2 | DEB,D EGeg |
e2(3BBB B2AB | dB (3BBB B2AG |1 A2G2 EEG(A | A)AG2 gfed :|[2 AG(G2 G)BAG | AG(E2 E)GAB ] |
A2G2 EEG(A | A)AG2 EDB,D | E2D2 B,B,D(E | E)EED EGAB|
[1 A2G2 EEG(A | A)AG2 EDB,D | E2ED EGD(E | E)E2D EGAB :|
[2 ABG(A A2)Bd | eB2A Bdeg | e3(e e2)eg | a2g2 ed3 :|